public/icons/vscode-icon.svg

<svg width="129" height="128" viewBox="0 0 129 128" fill="none" xmlns="http://www.w3.org/2000/svg">
<g clip-path="url(#clip0_67_35)">
<path d="M98.9331 0H30.9331C14.3646 0 0.933105 13.4315 0.933105 30V98C0.933105 114.569 14.3646 128 30.9331 128H98.9331C115.502 128 128.933 114.569 128.933 98V30C128.933 13.4315 115.502 0 98.9331 0Z" fill="#F4F2ED"/>
<path d="M17.791 50.104C17.791 50.104 15.4235 48.3975 18.2645 46.119L24.8825 40.201C24.8825 40.201 26.7765 38.2085 28.7785 39.9445L89.853 86.184V108.357C89.853 108.357 89.8235 111.839 85.355 111.454L17.791 50.104Z" fill="#2489CA"/>
<path d="M33.5329 64.396L17.7909 78.7075C17.7909 78.7075 16.1729 79.911 17.7909 82.0615L25.0994 88.709C25.0994 88.709 26.8354 90.5735 29.3999 88.4525L46.0889 75.798L33.5329 64.396Z" fill="#1070B3"/>
<path d="M61.1699 64.5145L90.0404 42.4695L89.8529 20.415C89.8529 20.415 88.6199 15.6015 84.5069 18.107L46.0889 53.0725L61.1699 64.5145Z" fill="#0877B9"/>
<path d="M85.3553 111.484C87.0323 113.2 89.0643 112.638 89.0643 112.638L111.563 101.551C114.443 99.5885 114.038 97.1525 114.038 97.1525V30.949C114.038 28.039 111.059 27.0335 111.059 27.0335L91.5598 17.6335C87.2988 15 84.5073 18.107 84.5073 18.107C84.5073 18.107 88.0973 15.523 89.8533 20.415V107.952C89.8556 108.549 89.7242 109.139 89.4688 109.679C88.9558 110.714 87.8413 111.681 85.1683 111.276L85.3553 111.484Z" fill="#3C99D4"/>
</g>
<defs>
<clipPath id="clip0_67_35">
<rect width="128" height="128" fill="white" transform="translate(0.933105)"/>
</clipPath>
</defs>
</svg>

<svg xmlns="http://www.w3.org/2000/svg" width="129" height="128" fill="none"><g clip-path="url(#a)"><path fill="#F4F2ED" d="M98.933 0h-68c-16.568 0-30 13.431-30 30v68c0 16.569 13.432 30 30 30h68c16.569 0 30-13.431 30-30V30c0-16.569-13.431-30-30-30Z"/><path fill="#2489CA" d="M17.791 50.104s-2.367-1.706.474-3.985l6.617-5.918s1.894-1.992 3.896-.257l61.075 46.24v22.173s-.03 3.482-4.498 3.097l-67.564-61.35Z"/><path fill="#1070B3" d="M33.533 64.396 17.79 78.707s-1.618 1.204 0 3.355l7.308 6.647s1.736 1.864 4.3-.257l16.69-12.654-12.556-11.402Z"/><path fill="#0877B9" d="M61.17 64.514 90.04 42.47l-.187-22.055s-1.233-4.813-5.346-2.308L46.089 53.072l15.08 11.442Z"/><path fill="#3C99D4" d="M85.355 111.484c1.677 1.716 3.71 1.154 3.71 1.154l22.498-11.087c2.88-1.963 2.475-4.398 2.475-4.398V30.949c0-2.91-2.979-3.916-2.979-3.916l-19.5-9.4c-4.26-2.633-7.052.474-7.052.474s3.59-2.584 5.346 2.308v87.537a4.003 4.003 0 0 1-.384 1.727c-.513 1.035-1.628 2.002-4.3 1.597l.186.208Z"/></g><defs><clipPath id="a"><path fill="#fff" d="M.933 0h128v128h-128z"/></clipPath></defs></svg>
